X: 15405
T: Gleanntán Frolics, The
R: slide
M: 12/8
K: Dmajor
d2 B AFA d2 B A2 B|d2 B AFE F2 B BAB|
d2 B AFA d2 B A2 B|1 d2 B AFE F2 D ABc:|2 d2 B AFE F2 D Dfe||
d3 d2 e f3 f2 e|d3 d2 e f2 b afe|
d3 d2 e f2 b afe|def afe d2 B BAB|
d3 d2 e f3 f2 e|d3 d2 e f2 b afe|
d3 d2 e f2 b afe|d2 B AFE F2 D D3||

